svgs/1F607.svg

<svg xmlns="http://www.w3.org/2000/svg" xmlns:xlink="http://www.w3.org/1999/xlink" preserveAspectRatio="none" viewBox="0 0 72 72"><defs><path id="a" fill="#FCC21B" d="M63.75 16.95Q24.1 16.95 8.5 53.6 0 73.65 0 100.6q0 10.4 18.7 17.7 18.65 7.35 45.05 7.35 26.45 0 45.1-7.35 18.7-7.3 18.7-17.7 0-26.95-8.5-47-15.6-36.65-55.3-36.65z"/><path id="b" fill="#2F2F2F" d="M93.4 88.4q.7-1 .5-2.25-.15-1.25-1.15-1.95-1-.75-2.25-.55-1.25.2-1.95 1.2-4.35 6-10.75 9.3Q71.35 97.4 64 97.4q-7.4 0-13.8-3.25-6.45-3.3-10.8-9.3-.7-1-1.95-1.2-1.25-.15-2.25.55-1 .75-1.15 1.95-.2 1.25.5 2.25 5.2 7.15 12.9 11.1 7.7 3.9 16.55 3.9 8.85 0 16.5-3.9 7.75-3.95 12.9-11.1z"/><path id="c" fill="#2F2F2F" d="M31.95 73.85q.45-1.05 2.4-2.6 3.15-2.4 7.25-2.35 4.15 0 7.25 2.4 1.6 1.2 2.45 2.55.75 1.3 2.35 1.3.75 0 1.4-.35.95-.6 1.25-1.7.25-1.1-.3-2.05-1.25-2.05-3.6-3.9-4.65-3.7-10.8-3.7-6.1 0-10.75 3.7-2.35 1.85-3.6 3.9-.55 1-.3 2.05.3 1.1 1.25 1.65.95.6 2.05.3 1.1-.25 1.7-1.2z"/><path id="d" fill="#2F2F2F" d="M100 74.75q.95-.55 1.25-1.65.25-1.1-.3-2.05-1.25-2.05-3.6-3.95-4.65-3.7-10.75-3.7-6.15 0-10.8 3.7-2.35 1.9-3.6 3.95-.55 1-.3 2.05.3 1.1 1.25 1.65.95.6 2.1.3 1.1-.25 1.65-1.25.75-1.25 2.35-2.5 3.15-2.45 7.35-2.45 4.1 0 7.25 2.4 1.6 1.2 2.4 2.55.8 1.35 2.35 1.35.8 0 1.4-.4z"/><path id="e" fill="#40C0E7" d="M120.3 21q0-8.7-16.55-14.85T63.75 0Q40.35 0 23.8 6.15 7.25 12.3 7.25 21q0 8.75 16.55 14.85Q40.35 42 63.75 42q23.45 0 40-6.15Q120.3 29.75 120.3 21m-24.55-3.6q0 3.55-9.35 6-9.4 2.5-22.65 2.5-13.25 0-22.6-2.5-9.4-2.5-9.4-6 0-3.55 9.4-6.05 9.35-2.5 22.6-2.5 13.25 0 22.65 2.5 9.35 2.5 9.35 6.05z"/></defs><use transform="scale(.5625)" xlink:href="#a"/><use transform="scale(.5625)" xlink:href="#b"/><use transform="scale(.5625)" xlink:href="#c"/><use transform="scale(.5625)" xlink:href="#d"/><use transform="scale(.5625)" xlink:href="#e"/></svg>

<svg xmlns="http://www.w3.org/2000/svg" version="1.1" xmlns:xlink="http://www.w3.org/1999/xlink" preserveAspectRatio="none" x="0px" y="0px" width="72px" height="72px" viewBox="0 0 72 72">
<defs>
<g id="Layer0_0_MEMBER_0_FILL">
<path fill="#FCC21B" stroke="none" d="
M 63.75 16.95
Q 24.1 16.95 8.5 53.6 0 73.65 0 100.6 0 111 18.7 118.3 37.35 125.65 63.75 125.65 90.2 125.65 108.85 118.3 127.55 111 127.55 100.6 127.55 73.65 119.05 53.6 103.45 16.95 63.75 16.95 Z"/>
</g>

<g id="Layer0_0_MEMBER_1_FILL">
<path fill="#2F2F2F" stroke="none" d="
M 93.4 88.4
Q 94.1 87.4 93.9 86.15 93.75 84.9 92.75 84.2 91.75 83.45 90.5 83.65 89.25 83.85 88.55 84.85 84.2 90.85 77.8 94.15 71.35 97.4 64 97.4 56.6 97.4 50.2 94.15 43.75 90.85 39.4 84.85 38.7 83.85 37.45 83.65 36.2 83.5 35.2 84.2 34.2 84.95 34.05 86.15 33.85 87.4 34.55 88.4 39.75 95.55 47.45 99.5 55.15 103.4 64 103.4 72.85 103.4 80.5 99.5 88.25 95.55 93.4 88.4 Z"/>
</g>

<g id="Layer0_0_MEMBER_2_MEMBER_0_FILL">
<path fill="#2F2F2F" stroke="none" d="
M 31.95 73.85
Q 32.4 72.8 34.35 71.25 37.5 68.85 41.6 68.9 45.75 68.9 48.85 71.3 50.45 72.5 51.3 73.85 52.05 75.15 53.65 75.15 54.4 75.15 55.05 74.8 56 74.2 56.3 73.1 56.55 72 56 71.05 54.75 69 52.4 67.15 47.75 63.45 41.6 63.45 35.5 63.45 30.85 67.15 28.5 69 27.25 71.05 26.7 72.05 26.95 73.1 27.25 74.2 28.2 74.75 29.15 75.35 30.25 75.05 31.35 74.8 31.95 73.85 Z"/>
</g>

<g id="Layer0_0_MEMBER_2_MEMBER_1_FILL">
<path fill="#2F2F2F" stroke="none" d="
M 100 74.75
Q 100.95 74.2 101.25 73.1 101.5 72 100.95 71.05 99.7 69 97.35 67.1 92.7 63.4 86.6 63.4 80.45 63.4 75.8 67.1 73.45 69 72.2 71.05 71.65 72.05 71.9 73.1 72.2 74.2 73.15 74.75 74.1 75.35 75.25 75.05 76.35 74.8 76.9 73.8 77.65 72.55 79.25 71.3 82.4 68.85 86.6 68.85 90.7 68.85 93.85 71.25 95.45 72.45 96.25 73.8 97.05 75.15 98.6 75.15 99.4 75.15 100 74.75 Z"/>
</g>

<g id="Layer0_1_FILL">
<path fill="#40C0E7" stroke="none" d="
M 120.3 21
Q 120.3 12.3 103.75 6.15 87.2 0 63.75 0 40.35 0 23.8 6.15 7.25 12.3 7.25 21 7.25 29.75 23.8 35.85 40.35 42 63.75 42 87.2 42 103.75 35.85 120.3 29.75 120.3 21
M 95.75 17.4
Q 95.75 20.95 86.4 23.4 77 25.9 63.75 25.9 50.5 25.9 41.15 23.4 31.75 20.9 31.75 17.4 31.75 13.85 41.15 11.35 50.5 8.85 63.75 8.85 77 8.85 86.4 11.35 95.75 13.85 95.75 17.4 Z"/>
</g>
</defs>

<g id="Layer_1">
<g transform="matrix( 0.5625, 0, 0, 0.5625, 0,0) ">
<use xlink:href="#Layer0_0_MEMBER_0_FILL"/>
</g>

<g transform="matrix( 0.5625, 0, 0, 0.5625, 0,0) ">
<use xlink:href="#Layer0_0_MEMBER_1_FILL"/>
</g>

<g transform="matrix( 0.5625, 0, 0, 0.5625, 0,0) ">
<use xlink:href="#Layer0_0_MEMBER_2_MEMBER_0_FILL"/>
</g>

<g transform="matrix( 0.5625, 0, 0, 0.5625, 0,0) ">
<use xlink:href="#Layer0_0_MEMBER_2_MEMBER_1_FILL"/>
</g>

<g transform="matrix( 0.5625, 0, 0, 0.5625, 0,0) ">
<use xlink:href="#Layer0_1_FILL"/>
</g>
</g>
</svg>
